X: 59
T: No_151_Switchgrass_Dance_Song_(a).krn
N: Derived from No_151_Switchgrass_Dance_Song_(a).krn
%%abc-version 2.0
%%abcx-abcm2ps-target-version 5.9.1 (29 Sep 2008)
%%abc-creator hum2abc beta
%%abcx-conversion-date 2019/03/15 08:38:45
%%humdrum-veritas 2951726825
%%humdrum-veritas-data 3250257025
%%linebreak <none>
%%barnumbers 0
L: 1/8
M: 3/4
K: Eb clef=bass
[K:clef=bass][M:3/4]B,3/G,/ B,3/G,/F,2 [I:setbarnb 2]| 
B,3/G,/ F,3/E,/ C, z ||  
[M:2/4]E,C,3//G,//C,2 | 
C, z C,3/C,/ | 
G,3/G,/F,2 ||  
[M:3/4]E,C,3//E,//C,2C,2 :|]  



